X:1
T:Title
%%score { 1 | ( 2 3 ) }
L:1/8
Q:1/4=100
M:6/8
K:Ab
V:1 treble nm="Grand Piano"
V:2 bass 
V:3 bass 
V:1
 A2 E AG[CEA] | .[DGB]2 [DGB] A3 | e2 c e2 c | d2 c [GB]3 | A2 E AG[CEA] | .[DGB]2 [DGB] Ace | %6
w: Carrie~B.~Adams * * * *||||||
 e2 B [EG]2 [=DF] | E6 | F2 F [Gd]2 [Gd] | [Fd]2 [Ec] [Ec]3 | [=Ec]2 [EG] [Ec]2 [GB] | [GB]AG A3 | %12
w: ||||||
 [FA]2 [FA] [Af]2 [Af] | e2 c AA[AB] | [Ac]2 [Ae] [EGc]2 [DEB] | [CEA]6 | [CE]2 [Ec] [Ec]3 | %17
w: |||||
 [DB][Ec][DB] [CA]3 | G2 D G2 F | [DF][CE][_C=D] [=CE]3 | [CE]2 [Ec] [Ec]3 | .[=EB]2 [CGB] [CFA]3 | %22
w: |||||
 [=DB]2 [DF] [DB]2 [Dc] | B2 G .E3 | [CE]2 [DF] [CE]2 [Ec] | [Ec]2 [DB] [CA]3 | A2 B A2 e | %27
w: |||||
 [_Ge]2 [Fd] [Fd]3 | [Fd]2 [Fd] .[Fd]2 [B,FB] | [=Ec]2 [GB] [FA][FA][FB] | c2 e c2 B | [CA]6 |] %32
w: |||||
V:2
 [A,CE]2 [A,C] [A,CE]2 A, | z[K:treble] cE, [A,CE]3 | [A,CA]2 [A,EA] [A,CA]2 [A,EA] | %3
 [B,EG]2 [A,EA][K:bass] [E,E]3 | [A,CE]2 [A,C] [A,CE]2 A, | z[K:treble] cE, [A,C][A,EA][A,CA] | %6
 [B,G]2 [B,EG][K:bass] [B,,B,]2 [B,,A,] | [E,G,]6 | [E,B,D]2 [E,B,] [E,B,]2 [E,B,] | %9
 [A,,A,]2 [A,,A,] [A,,A,]3 | [C,G,]2 [C,C] [C,G,]2 [=E,C] | z F[F,C=E] [F,CF]3 | %12
 [D,D]2 [D,D] [D,D]2 [D,D] | [A,CA]2 [A,E][K:bass] [F,CF][F,C][=E,D] | [E,E]2 [E,C] E,2 E, | A,,6 | %16
 [A,,A,]2 [A,,A,] [A,,A,]3 | [E,G,]2 [E,G,] [A,,A,]3 | [E,B,D]2 [E,G,B,] [E,B,D]2 [E,G,D] | %19
 [A,,A,]2 [A,,A,] [A,,A,]3 | [A,,A,]2 [A,,A,] [A,,A,]3 | z[K:treble] c[K:bass]=E, F,3 | %22
 [B,,B,]2 [B,,B,] [B,,A,]2 [B,,A,] | [E,G,E]2 [E,B,E] .[E,G,]3 | %24
 [A,,A,]2 [A,,A,] [A,,A,]2 [A,,A,] | [E,G,]2 [E,G,] [A,,A,]3 | [A,C_G]2 [A,CG] [A,CG]2 [A,G] | %27
 [D,A,]2 [D,A,] [D,A,]3 | [B,,B,]2 [B,,B,] z[K:treble] c[K:bass]D, | %29
 [C,G,]2 [=E,C] [E,C][F,A,][D,A,] | [E,A,E]2 [E,A,C] [E,G,E]2 [E,G,D] | [A,,A,]6 |] %32
V:3
 x6 | .E,3[K:treble] z3 | x6 | x3[K:bass] x3 | x6 | .E,3[K:treble] z3 | x3[K:bass] x3 | x6 | x6 | %9
 x6 | x6 | .[F,C]3 z3 | x6 | x3[K:bass] x3 | x6 | x6 | x6 | x6 | x6 | x6 | x6 | %21
 .[C,G,]3[K:treble][K:bass] z3 | x6 | x6 | x6 | x6 | x6 | x6 | z3 .[B,,B,]3[K:treble][K:bass] | %29
 x6 | x6 | x6 |] %32

